packages/components/src/telekom/icons/home/wifi-no-wired-internet/selected.svg

<?xml version="1.0" encoding="UTF-8"?>
<svg width="24px" height="24px" viewBox="0 0 24 24" version="1.1" xmlns="http://www.w3.org/2000/svg" xmlns:xlink="http://www.w3.org/1999/xlink">
    <title>/svg/icon/home/wifi-no-wired-internet/selected</title>
    <g id="icon/home/wifi-no-wired-internet/selected" stroke="none" stroke-width="1" fill="none" fill-rule="evenodd">
        <path d="M18.75,20.25 C19.2332492,20.25 19.625,20.6417509 19.625,21.125 C19.625,21.6082492 19.2332492,22 18.75,22 C18.2667509,22 17.875,21.6082492 17.875,21.125 C17.875,20.6417509 18.2667509,20.25 18.75,20.25 Z M18.75,17.625 C19.9749445,17.625 21.052267,18.2587485 21.6778536,19.2145496 L21.7835,19.3865 L20.7615,20.267 C20.427,19.4865 19.652,18.9375 18.75,18.9375 C17.904375,18.9375 17.1703711,19.4200196 16.8063043,20.1234467 L16.7385,20.267 L15.7165,19.3865 C16.3215,18.3355 17.453,17.625 18.75,17.625 Z M19.5,3.99999997 L19.5009194,14.0393079 C19.2541104,14.0133231 19.0035833,14 18.75,14 C17.3224394,14 15.9917551,14.4223027 14.8761885,15.1487283 C13.9177677,15.7728249 13.117949,16.621151 12.5517101,17.6188363 L12.4031289,17.8945791 L14.419,19.5 L4.49999996,19.5 C2.90217853,19.5 1.59632904,18.2512156 1.50509211,16.6762873 L1.49999996,16.5 L1.49999996,3.99999997 L19.5,3.99999997 Z M18.75,15 C20.7486522,15 22.5254329,15.9638828 23.6445155,17.4496956 L23.793,17.6555 L22.7905,18.519 C21.9325,17.1935 20.444,16.3125 18.7505,16.3125 C17.1376429,16.3125 15.7107268,17.111593 14.8373146,18.3327138 L14.7105,18.519 L13.708,17.6555 C14.8135,16.0535 16.6605,15 18.75,15 Z M12.47,9.46949999 C12.763,9.17649999 13.2375,9.17649999 13.5305,9.46949999 C13.7968636,9.73586363 13.8210785,10.1526405 13.602769,10.446352 L13.53,10.5305 L11.5605,12.5 L13.53,14.4695 C13.823,14.762 13.823,15.2375 13.53,15.53 C13.2636364,15.7963637 12.8472727,15.8205785 12.5536364,15.6026446 L12.4695,15.53 L10.5,13.5605 L8.53049999,15.53 C8.23749998,15.823 7.76299998,15.823 7.46999998,15.53 C7.20363634,15.2640909 7.17942147,14.8469422 7.39735535,14.5535349 L7.46999998,14.4695 L9.43949999,12.5 L7.46999998,10.5305 C7.17699998,10.238 7.17699998,9.76249999 7.46999998,9.46999999 C7.73636362,9.20363635 8.15272726,9.17942148 8.44636362,9.39735536 L8.53049999,9.46999999 L10.5,11.4395 L12.47,9.46949999 Z M7.49999998,4.87499997 C7.15499998,4.87499997 6.87499998,5.15499997 6.87499998,5.49999997 C6.87499998,5.84499997 7.15499998,6.12499998 7.49999998,6.12499998 C7.84499998,6.12499998 8.12499998,5.84499997 8.12499998,5.49999997 C8.12499998,5.15499997 7.84499998,4.87499997 7.49999998,4.87499997 Z M5.49999997,4.87499997 C5.15499997,4.87499997 4.87499997,5.15499997 4.87499997,5.49999997 C4.87499997,5.84499997 5.15499997,6.12499998 5.49999997,6.12499998 C5.84499997,6.12499998 6.12499998,5.84499997 6.12499998,5.49999997 C6.12499998,5.15499997 5.84499997,4.87499997 5.49999997,4.87499997 Z M3.49999996,4.87499997 C3.15499996,4.87499997 2.87499996,5.15499997 2.87499996,5.49999997 C2.87499996,5.84499997 3.15499996,6.12499998 3.49999996,6.12499998 C3.84499997,6.12499998 4.12499997,5.84499997 4.12499997,5.49999997 C4.12499997,5.15499997 3.84499997,4.87499997 3.49999996,4.87499997 Z" id="Icon" fill="#000000"></path>
    </g>
</svg>

<svg width="24" height="24" xmlns="http://www.w3.org/2000/svg"><path d="M18.75 20.25a.875.875 0 110 1.75.875.875 0 010-1.75zm0-2.625c1.225 0 2.302.634 2.928 1.59l.105.172-1.021.88a2.19 2.19 0 00-2.012-1.33 2.19 2.19 0 00-1.944 1.186l-.068.144-1.021-.88a3.5 3.5 0 013.033-1.762zM19.5 4v10.04a7.076 7.076 0 00-4.625 1.11 7.179 7.179 0 00-2.472 2.745L14.42 19.5H4.5a3 3 0 01-2.995-2.824L1.5 16.5V4h18zm-.75 11a6.12 6.12 0 014.895 2.45l.148.206-1.002.863a4.81 4.81 0 00-4.04-2.206c-1.613 0-3.04.799-3.914 2.02l-.127.186-1.002-.863A6.12 6.12 0 0118.75 15zm-6.28-5.53a.75.75 0 011.133.976l-.073.085-1.97 1.969 1.97 1.97a.75.75 0 01-.976 1.133l-.085-.073-1.969-1.97-1.97 1.97a.75.75 0 01-1.133-.976l.073-.085L9.44 12.5l-1.97-1.97a.75.75 0 01.976-1.133l.084.073 1.97 1.97 1.97-1.97zM7.5 4.874a.625.625 0 100 1.25.625.625 0 000-1.25zm-2 0a.625.625 0 100 1.25.625.625 0 000-1.25zm-2 0a.625.625 0 100 1.25.625.625 0 000-1.25z" fill="#000" fill-rule="evenodd"/></svg>
